humanity-icon-theme/Humanity/actions/32/help-contents.svg

<?xml version="1.0" encoding="UTF-8" standalone="no"?>
<!-- Created with Inkscape (http://www.inkscape.org/) -->

<svg
   xmlns:svg="http://www.w3.org/2000/svg"
   xmlns="http://www.w3.org/2000/svg"
   xmlns:xlink="http://www.w3.org/1999/xlink"
   version="1.0"
   width="32"
   height="32"
   id="svg2502">
  <defs
     id="defs2504">
    <linearGradient
       id="linearGradient8838">
      <stop
         id="stop8840"
         style="stop-color:black;stop-opacity:1"
         offset="0" />
      <stop
         id="stop8842"
         style="stop-color:black;stop-opacity:0"
         offset="1" />
    </linearGradient>
    <radialGradient
       cx="62.625"
       cy="4.625"
       r="10.625"
       fx="62.625"
       fy="4.625"
       id="radialGradient2494"
       xlink:href="#linearGradient8838"
       gradientUnits="userSpaceOnUse"
       gradientTransform="matrix(1.5058824,0,0,0.37647,-78.305888,26.258824)" />
    <linearGradient
       id="linearGradient2490-182-124">
      <stop
         id="stop2788"
         style="stop-color:#1f4b6a;stop-opacity:1"
         offset="0" />
      <stop
         id="stop2790"
         style="stop-color:#4083c2;stop-opacity:1"
         offset="1" />
    </linearGradient>
    <linearGradient
       x1="18.379412"
       y1="44.980297"
       x2="18.379412"
       y2="3.0816143"
       id="linearGradient2491"
       xlink:href="#linearGradient2490-182-124"
       gradientUnits="userSpaceOnUse"
       gradientTransform="matrix(0.7126612,0,0,0.7126613,-1.1038706,-1.1038704)" />
    <linearGradient
       id="linearGradient3242-187-536">
      <stop
         id="stop2778"
         style="stop-color:#8badea;stop-opacity:1"
         offset="0" />
      <stop
         id="stop2780"
         style="stop-color:#6396cd;stop-opacity:1"
         offset="0.26238" />
      <stop
         id="stop2782"
         style="stop-color:#3b7caf;stop-opacity:1"
         offset="0.66093999" />
      <stop
         id="stop2784"
         style="stop-color:#194c70;stop-opacity:1"
         offset="1" />
    </linearGradient>
    <radialGradient
       cx="23.895569"
       cy="3.9900031"
       r="20.397499"
       fx="23.895569"
       fy="3.9900031"
       id="radialGradient2489"
       xlink:href="#linearGradient3242-187-536"
       gradientUnits="userSpaceOnUse"
       gradientTransform="matrix(0,1.7008781,-2.245129,0,24.958071,-40.236051)" />
    <linearGradient
       id="linearGradient4873">
      <stop
         id="stop4875"
         style="stop-color:white;stop-opacity:1"
         offset="0" />
      <stop
         id="stop4877"
         style="stop-color:white;stop-opacity:0"
         offset="1" />
    </linearGradient>
    <linearGradient
       x1="63.397362"
       y1="-12.489107"
       x2="63.397362"
       y2="5.4675598"
       id="linearGradient2486"
       xlink:href="#linearGradient4873"
       gradientUnits="userSpaceOnUse"
       gradientTransform="matrix(1.5436509,0,0,1.5436158,-80.015712,21.419381)" />
  </defs>
  <g
     id="layer1">
    <path
       d="m 31.999998,28 c 0,2.209139 -7.163445,4 -16.000001,4 C 7.1634417,32 -3.2e-6,30.209139 -3.2e-6,28 c 0,-2.209139 7.1634449,-4 16.0000002,-4 8.836556,0 16.000001,1.790861 16.000001,4 l 0,0 z"
       id="path8836"
       style="opacity:0.3;fill:url(#radialGradient2494);fill-opacity:1;fill-rule:evenodd;stroke:none;stroke-width:0.99999988;marker:none;visibility:visible;display:inline;overflow:visible" />
    <path
       d="m 16.000001,1.5017975 c -7.9996072,0 -14.4982032,6.4985937 -14.4982032,14.4982015 0,7.999609 6.498596,14.498206 14.4982032,14.498203 7.999605,0 14.498209,-6.498594 14.498201,-14.498203 0,-7.9996078 -6.498596,-14.4982015 -14.498201,-14.4982015 z"
       id="path2555"
       style="fill:url(#radialGradient2489);fill-opacity:1;stroke:url(#linearGradient2491);stroke-width:1.00365412;stroke-linecap:round;stroke-linejoin:round;stroke-miterlimit:4;stroke-opacity:1;stroke-dasharray:none;stroke-dashoffset:0" />
    <path
       d="M 29.5,15.999522 C 29.5,23.455607 23.455399,29.5 16.000172,29.5 8.5442598,29.5 2.5,23.455539 2.5,15.999522 2.5,8.5437822 8.5442598,2.5000011 16.000172,2.5000011 23.455399,2.5000011 29.5,8.5437822 29.5,15.999522 l 0,0 z"
       id="path8655"
       style="opacity:0.4;fill:none;stroke:url(#linearGradient2486);stroke-width:1;stroke-miterlimit:4;stroke-opacity:1;stroke-dasharray:none" />
    <path
       d="m 16.682829,19.122662 c -0.04956,-1.769072 0.34678,-3.486463 2.018151,-4.702957 1.765395,-1.375776 3.465611,-3.097059 3.285935,-5.1260626 -0.03923,-1.9567912 -2.319181,-3.4901498 -4.77566,-3.7106197 -2.763139,-0.3827896 -6.106521,0.563802 -7.032431,2.7217069 -0.4695998,1.0495309 -0.03413,2.9325134 1.541846,2.9325134 0.92179,0 1.345172,-0.595451 1.414728,-1.14015 0.05262,-0.4121352 -0.116577,-0.7801678 -0.2165,-1.1205947 -0.113858,-0.3878941 0.372191,-1.1396747 0.901563,-1.4459783 0.442351,-0.2559555 0.905165,-0.3417811 0.973385,-0.3581768 1.588609,-0.3817838 3.172223,0.4615245 3.832935,1.487935 0.660712,1.0264095 -0.06653,2.5832738 -1.112141,4.0972648 -1.045611,1.51399 -2.167737,3.233575 -2.163254,5.060055 0,0.695342 -0.06195,0.931566 -0.01793,1.212884 0.03517,0.224765 0.779419,0.197603 1.349377,0.09218 z m -0.724992,2.381075 c -1.51896,-0.08246 -2.570293,1.639498 -1.657776,2.736619 0.81492,1.21133 3.099769,0.912304 3.491392,-0.459406 0.407146,-1.066681 -0.572657,-2.295019 -1.833615,-2.277214 l -1e-6,1e-6 z"
       id="path9053"
       style="font-size:72px;font-style:normal;font-weight:bold;opacity:0.2;fill:black;fill-opacity:1;stroke:none;font-family:Standard Symbols L" />
    <path
       d="m 16.682829,20.122661 c -0.04956,-1.769071 0.34678,-3.486462 2.018151,-4.702956 1.765395,-1.375776 3.465611,-3.097059 3.285935,-5.126062 -0.03923,-1.9567923 -2.319181,-3.4901508 -4.77566,-3.7106209 -2.763139,-0.3827895 -6.106521,0.5638021 -7.032431,2.721707 -0.4695998,1.0495319 -0.03413,2.9325139 1.541846,2.9325139 0.92179,0 1.345172,-0.595451 1.414728,-1.140149 0.05262,-0.412136 -0.116577,-0.780169 -0.2165,-1.1205958 -0.113858,-0.3878945 0.372191,-1.1396748 0.901563,-1.4459788 0.442351,-0.2559554 0.905165,-0.3417809 0.973385,-0.3581767 1.588609,-0.3817838 3.172223,0.4615244 3.832935,1.487935 0.660712,1.0264103 -0.06653,2.5832743 -1.112141,4.0972653 -1.045611,1.51399 -2.167737,3.233575 -2.163254,5.060055 0,0.695342 -0.06195,0.931566 -0.01793,1.212884 0.03517,0.224765 0.779419,0.197603 1.349377,0.09218 z m -0.724992,2.381076 c -1.51896,-0.08246 -2.570293,1.639498 -1.657776,2.736619 0.81492,1.21133 3.099769,0.912304 3.491392,-0.459406 0.407146,-1.066681 -0.572657,-2.295019 -1.833615,-2.277214 l -1e-6,1e-6 z"
       id="path3298"
       style="font-size:72px;font-style:normal;font-weight:bold;fill:white;fill-opacity:1;stroke:none;font-family:Standard Symbols L" />
  </g>
</svg>

<?xml version="1.0" encoding="UTF-8" standalone="no"?>
<!-- Created with Inkscape (http://www.inkscape.org/) -->
<svg
   xmlns:svg="http://www.w3.org/2000/svg"
   xmlns="http://www.w3.org/2000/svg"
   xmlns:xlink="http://www.w3.org/1999/xlink"
   version="1.0"
   width="32"
   height="32"
   id="svg2502">
  <defs
     id="defs2504">
    <linearGradient
       id="linearGradient8838">
      <stop
         id="stop8840"
         style="stop-color:#000000;stop-opacity:1"
         offset="0" />
      <stop
         id="stop8842"
         style="stop-color:#000000;stop-opacity:0"
         offset="1" />
    </linearGradient>
    <radialGradient
       cx="62.625"
       cy="4.625"
       r="10.625"
       fx="62.625"
       fy="4.625"
       id="radialGradient2494"
       xlink:href="#linearGradient8838"
       gradientUnits="userSpaceOnUse"
       gradientTransform="matrix(1.5058824,0,0,0.37647,-78.305888,26.258824)" />
    <linearGradient
       id="linearGradient2490-182-124">
      <stop
         id="stop2788"
         style="stop-color:#1f4b6a;stop-opacity:1"
         offset="0" />
      <stop
         id="stop2790"
         style="stop-color:#4083c2;stop-opacity:1"
         offset="1" />
    </linearGradient>
    <linearGradient
       x1="18.379412"
       y1="44.980297"
       x2="18.379412"
       y2="3.0816143"
       id="linearGradient2491"
       xlink:href="#linearGradient2490-182-124"
       gradientUnits="userSpaceOnUse"
       gradientTransform="matrix(0.7126612,0,0,0.7126613,-1.1038706,-1.1038704)" />
    <linearGradient
       id="linearGradient3242-187-536">
      <stop
         id="stop2778"
         style="stop-color:#8badea;stop-opacity:1"
         offset="0" />
      <stop
         id="stop2780"
         style="stop-color:#6396cd;stop-opacity:1"
         offset="0.26238" />
      <stop
         id="stop2782"
         style="stop-color:#3b7caf;stop-opacity:1"
         offset="0.66093999" />
      <stop
         id="stop2784"
         style="stop-color:#194c70;stop-opacity:1"
         offset="1" />
    </linearGradient>
    <radialGradient
       cx="23.895569"
       cy="3.9900031"
       r="20.397499"
       fx="23.895569"
       fy="3.9900031"
       id="radialGradient2489"
       xlink:href="#linearGradient3242-187-536"
       gradientUnits="userSpaceOnUse"
       gradientTransform="matrix(0,1.7008781,-2.245129,0,24.958071,-40.236051)" />
    <linearGradient
       id="linearGradient4873">
      <stop
         id="stop4875"
         style="stop-color:#ffffff;stop-opacity:1"
         offset="0" />
      <stop
         id="stop4877"
         style="stop-color:#ffffff;stop-opacity:0"
         offset="1" />
    </linearGradient>
    <linearGradient
       x1="63.397362"
       y1="-12.489107"
       x2="63.397362"
       y2="5.4675598"
       id="linearGradient2486"
       xlink:href="#linearGradient4873"
       gradientUnits="userSpaceOnUse"
       gradientTransform="matrix(1.5436509,0,0,1.5436158,-80.015712,21.419381)" />
  </defs>
  <g
     id="layer1">
    <path
       d="M 31.999998,28 C 31.999998,30.209139 24.836553,32 15.999997,32 C 7.1634417,32 -3.2e-06,30.209139 -3.2e-06,28 C -3.2e-06,25.790861 7.1634417,24 15.999997,24 C 24.836553,24 31.999998,25.790861 31.999998,28 L 31.999998,28 z"
       id="path8836"
       style="opacity:0.3;fill:url(#radialGradient2494);fill-opacity:1;fill-rule:evenodd;stroke:none;stroke-width:0.99999988;stroke-linecap:butt;stroke-linejoin:round;marker:none;marker-start:none;marker-mid:none;marker-end:none;stroke-miterlimit:4;stroke-dasharray:none;stroke-dashoffset:0;stroke-opacity:1;visibility:visible;display:inline;overflow:visible" />
    <path
       d="M 16.000001,1.5017975 C 8.0003938,1.5017975 1.5017978,8.0003912 1.5017978,15.999999 C 1.5017978,23.999608 8.0003938,30.498205 16.000001,30.498202 C 23.999606,30.498202 30.49821,23.999608 30.498202,15.999999 C 30.498202,8.0003912 23.999606,1.5017975 16.000001,1.5017975 z"
       id="path2555"
       style="fill:url(#radialGradient2489);fill-opacity:1;stroke:url(#linearGradient2491);stroke-width:1.00365412;stroke-linecap:round;stroke-linejoin:round;stroke-miterlimit:4;stroke-dasharray:none;stroke-dashoffset:0;stroke-opacity:1" />
    <path
       d="M 29.5,15.999522 C 29.5,23.455607 23.455399,29.5 16.000172,29.5 C 8.5442598,29.5 2.5,23.455539 2.5,15.999522 C 2.5,8.5437822 8.5442598,2.5000011 16.000172,2.5000011 C 23.455399,2.5000011 29.5,8.5437822 29.5,15.999522 L 29.5,15.999522 z"
       id="path8655"
       style="opacity:0.4;fill:none;fill-opacity:1;fill-rule:nonzero;stroke:url(#linearGradient2486);stroke-width:1;stroke-miterlimit:4;stroke-dasharray:none;stroke-opacity:1" />
    <path
       d="M 16.682829,19.122662 C 16.633269,17.35359 17.029609,15.636199 18.70098,14.419705 C 20.466375,13.043929 22.166591,11.322646 21.986915,9.2936424 C 21.947682,7.3368512 19.667734,5.8034926 17.211255,5.5830227 C 14.448116,5.2002331 11.104734,6.1468247 10.178824,8.3047296 C 9.7092242,9.3542605 10.144698,11.237243 11.72067,11.237243 C 12.64246,11.237243 13.065842,10.641792 13.135398,10.097093 C 13.188023,9.6849578 13.018821,9.3169252 12.918898,8.9764983 C 12.80504,8.5886042 13.291089,7.8368236 13.820461,7.53052 C 14.262812,7.2745645 14.725626,7.1887389 14.793846,7.1723432 C 16.382455,6.7905594 17.966069,7.6338677 18.626781,8.6602782 C 19.287493,9.6866877 18.56025,11.243552 17.51464,12.757543 C 16.469029,14.271533 15.346903,15.991118 15.351386,17.817598 C 15.351386,18.51294 15.289431,18.749164 15.333452,19.030482 C 15.368623,19.255247 16.112871,19.228085 16.682829,19.122662 z M 15.957837,21.503737 C 14.438877,21.421278 13.387544,23.143235 14.300061,24.240356 C 15.114981,25.451686 17.39983,25.15266 17.791453,23.78095 C 18.198599,22.714269 17.218796,21.485931 15.957838,21.503736 L 15.957837,21.503737 z"
       id="path9053"
       style="font-size:72px;font-style:normal;font-weight:bold;opacity:0.2;fill:#000000;fill-opacity:1;stroke:none;stroke-width:0.75;stroke-linecap:round;stroke-linejoin:round;stroke-miterlimit:4;stroke-dasharray:none;stroke-opacity:1;font-family:Standard Symbols L" />
    <path
       d="M 16.682829,20.122661 C 16.633269,18.35359 17.029609,16.636199 18.70098,15.419705 C 20.466375,14.043929 22.166591,12.322646 21.986915,10.293643 C 21.947682,8.3368507 19.667734,6.8034922 17.211255,6.5830221 C 14.448116,6.2002326 11.104734,7.1468242 10.178824,9.3047291 C 9.7092242,10.354261 10.144698,12.237243 11.72067,12.237243 C 12.64246,12.237243 13.065842,11.641792 13.135398,11.097094 C 13.188023,10.684958 13.018821,10.316925 12.918898,9.9764982 C 12.80504,9.5886037 13.291089,8.8368234 13.820461,8.5305194 C 14.262812,8.274564 14.725626,8.1887385 14.793846,8.1723427 C 16.382455,7.7905589 17.966069,8.6338671 18.626781,9.6602777 C 19.287493,10.686688 18.56025,12.243552 17.51464,13.757543 C 16.469029,15.271533 15.346903,16.991118 15.351386,18.817598 C 15.351386,19.51294 15.289431,19.749164 15.333452,20.030482 C 15.368623,20.255247 16.112871,20.228085 16.682829,20.122661 z M 15.957837,22.503737 C 14.438877,22.421278 13.387544,24.143235 14.300061,25.240356 C 15.114981,26.451686 17.39983,26.15266 17.791453,24.78095 C 18.198599,23.714269 17.218796,22.485931 15.957838,22.503736 L 15.957837,22.503737 z"
       id="path3298"
       style="font-size:72px;font-style:normal;font-weight:bold;fill:#ffffff;fill-opacity:1;stroke:none;stroke-width:0.75;stroke-linecap:round;stroke-linejoin:round;stroke-miterlimit:4;stroke-dasharray:none;stroke-opacity:1;font-family:Standard Symbols L" />
  </g>
</svg>
